lib/typescript/assets/images/icons/flagUS.svg

<svg viewBox="0 0 640 480" fill="none" xmlns="http://www.w3.org/2000/svg">
<mask id="mask0_15_3847" style="mask-type:alpha" maskUnits="userSpaceOnUse" x="0" y="2" width="640" height="478">
<rect y="2" width="640" height="478" rx="40" fill="#C4C4C4"/>
</mask>
<g mask="url(#mask0_15_3847)">
<g clip-path="url(#clip0_15_3847)">
<path fill-rule="evenodd" clip-rule="evenodd" d="M0 0H912V36.9375H0V0ZM0 73.875H912V110.812H0V73.875ZM0 147.656H912V184.688H0V147.656ZM0 221.531H912V258.469H0V221.531ZM0 295.406H912V332.344H0V295.406ZM0 369.187H912V406.125H0V369.187ZM0 443.063H912V480H0V443.063Z" fill="#BD3D44"/>
<path fill-rule="evenodd" clip-rule="evenodd" d="M0 36.9375H912V73.875H0V36.9375ZM0 110.812H912V147.656H0V110.812ZM0 184.594H912V221.531H0V184.594ZM0 258.469H912V295.406H0V258.469ZM0 332.344H912V369.281H0V332.344ZM0 406.125H912V443.063H0V406.125Z" fill="white"/>
<path fill-rule="evenodd" clip-rule="evenodd" d="M0 0H364.781V258.469H0V0Z" fill="#192F5D"/>
<path fill-rule="evenodd" clip-rule="evenodd" d="M30.375 11.0625L33.75 21.2813H44.4375L35.8125 27.5625L39.0938 37.875L30.375 31.5L21.75 37.7812L25.0313 27.5625L16.3125 21.2813H27.1875L30.375 11.0625ZM91.2188 11.0625L94.5 21.2813H105.281L96.5625 27.5625L99.8438 37.875L91.2188 31.5L82.5 37.7812L85.7813 27.5625L77.1563 21.2813H87.8438L91.2188 11.0625ZM151.969 11.0625L155.344 21.2813H165.938L157.313 27.5625L160.594 37.875L151.875 31.5L143.25 37.7812L146.531 27.5625L137.813 21.2813H148.594L151.969 11.0625ZM212.813 11.0625L216.094 21.2813H226.875L218.156 27.5625L221.531 37.875L212.813 31.5L204.094 37.7812L207.469 27.5625L198.75 21.2813H209.438L212.813 11.0625ZM273.563 11.0625L276.938 21.2813H287.625L279 27.5625L282.281 37.875L273.563 31.5L264.938 37.7812L268.219 27.5625L259.594 21.2813H270.281L273.563 11.0625ZM334.406 11.0625L337.688 21.2813H348.469L339.75 27.5625L343.125 37.875L334.406 31.5L325.688 37.7812L329.063 27.5625L320.344 21.2813H331.125L334.406 11.0625ZM60.8438 36.9375L64.125 47.1562H74.9063L66.1875 53.4375L69.375 63.6563L60.9375 57.375L52.2188 63.6563L55.3125 53.4375L46.875 47.1562H57.5625L60.8438 36.9375ZM121.594 36.9375L124.969 47.1562H135.656L126.937 53.4375L130.313 63.6563L121.594 57.375L112.875 63.6563L116.25 53.4375L107.531 47.1562H118.313L121.594 36.9375ZM182.438 36.9375L185.719 47.1562H196.5L187.781 53.4375L191.063 63.6563L182.438 57.375L173.719 63.6563L177 53.4375L168.375 47.1562H179.063L182.438 36.9375ZM243.188 36.9375L246.563 47.1562H257.25L248.531 53.4375L251.906 63.6563L243.188 57.375L234.563 63.6563L237.844 53.4375L229.125 47.1562H240L243.188 36.9375ZM304.031 36.9375L307.313 47.1562H318.094L309.375 53.4375L312.656 63.6563L304.031 57.375L295.313 63.6563L298.594 53.4375L289.969 47.1562H300.656L304.031 36.9375ZM30.375 62.7188L33.75 73.125H44.4375L35.8125 79.4062L39.0938 89.625L30.375 83.25L21.75 89.625L25.0313 79.3125L16.3125 73.0312H27.1875L30.375 62.7188ZM91.2188 62.7188L94.5 73.0312H105.281L96.5625 79.3125L99.8438 89.5312L91.2188 83.1562L82.5 89.5312L85.7813 79.2187L77.1563 72.9375H87.8438L91.2188 62.7188ZM151.969 62.7188L155.344 73.0312H165.938L157.313 79.3125L160.594 89.5312L151.875 83.1562L143.25 89.5312L146.531 79.2187L137.813 72.9375H148.594L151.969 62.7188ZM212.813 62.7188L216.094 73.0312H226.875L218.156 79.3125L221.531 89.5312L212.813 83.1562L204.094 89.5312L207.469 79.2187L198.75 72.9375H209.438L212.813 62.7188ZM273.563 62.7188L276.938 73.0312H287.625L279 79.3125L282.281 89.5312L273.563 83.1562L264.938 89.5312L268.219 79.2187L259.594 72.9375H270.281L273.563 62.7188ZM334.406 62.7188L337.688 73.0312H348.469L339.75 79.3125L343.125 89.5312L334.406 83.1562L325.688 89.5312L329.063 79.2187L320.344 72.9375H331.125L334.406 62.7188ZM60.8438 88.5937L64.125 98.8125H74.9063L66.1875 105.094L69.4688 115.406L60.8438 109.031L52.125 115.312L55.4062 105.094L46.7813 98.8125H57.4688L60.8438 88.5937ZM121.594 88.5937L124.969 98.8125H135.656L126.937 105.094L130.313 115.406L121.594 109.031L112.875 115.312L116.25 105.094L107.531 98.8125H118.313L121.594 88.5937ZM182.438 88.5937L185.719 98.8125H196.5L187.781 105.094L191.063 115.406L182.438 109.031L173.719 115.312L177 105.094L168.375 98.8125H179.063L182.438 88.5937ZM243.188 88.5937L246.563 98.8125H257.25L248.625 105.094L251.906 115.406L243.188 109.031L234.563 115.312L237.844 105.094L229.125 98.8125H240L243.188 88.5937ZM304.031 88.5937L307.313 98.8125H318.094L309.375 105.094L312.656 115.406L304.031 109.031L295.313 115.312L298.594 105.094L289.969 98.8125H300.656L304.031 88.5937ZM30.375 114.469L33.75 124.687H44.4375L35.8125 130.969L39.0938 141.281L30.375 134.906L21.75 141.188L25.0313 130.969L16.3125 124.687H27.1875L30.375 114.469ZM91.2188 114.469L94.5 124.687H105.281L96.5625 130.969L99.8438 141.188L91.2188 134.906L82.5 141.188L85.7813 130.969L77.1563 124.687H87.8438L91.2188 114.469ZM151.969 114.469L155.344 124.687H165.938L157.313 130.969L160.594 141.281L151.875 134.906L143.25 141.188L146.531 130.969L137.813 124.687H148.594L151.969 114.469ZM212.813 114.469L216.094 124.687H226.875L218.156 130.969L221.531 141.281L212.813 134.906L204.094 141.188L207.469 130.969L198.75 124.687H209.438L212.813 114.469ZM273.563 114.469L276.938 124.687H287.625L279 130.969L282.281 141.281L273.563 134.906L264.938 141.188L268.219 130.969L259.594 124.687H270.281L273.563 114.469ZM334.406 114.469L337.688 124.687H348.469L339.75 130.969L343.125 141.281L334.406 134.906L325.688 141.188L329.063 130.969L320.344 124.687H331.125L334.406 114.469ZM60.8438 140.344L64.125 150.563H74.9063L66.1875 156.844L69.4688 167.062L60.8438 160.687L52.125 167.062L55.4062 156.75L46.7813 150.469H57.4688L60.8438 140.344ZM121.594 140.344L124.969 150.563H135.656L126.937 156.844L130.313 167.062L121.594 160.687L112.875 167.062L116.25 156.75L107.531 150.469H118.313L121.594 140.344ZM182.438 140.344L185.719 150.563H196.5L187.781 156.844L191.063 167.062L182.438 160.687L173.719 167.062L177 156.75L168.375 150.469H179.063L182.438 140.344ZM243.188 140.344L246.563 150.563H257.25L248.625 156.844L251.906 167.062L243.188 160.687L234.563 167.062L237.844 156.75L229.125 150.469H240L243.188 140.344ZM304.031 140.344L307.313 150.563H318.094L309.375 156.844L312.656 167.062L304.031 160.687L295.313 167.062L298.594 156.75L289.969 150.469H300.656L304.031 140.344ZM30.375 166.125L33.75 176.437H44.4375L35.8125 182.719L39.0938 192.844L30.375 186.562L21.75 192.844L25.0313 182.625L16.3125 176.344H27.1875L30.375 166.125ZM91.2188 166.125L94.5 176.437H105.281L96.5625 182.719L99.9375 192.844L91.2188 186.562L82.5 192.844L85.875 182.625L77.1563 176.344H87.8438L91.2188 166.125ZM151.969 166.125L155.344 176.437H165.938L157.313 182.719L160.594 192.844L151.875 186.562L143.25 192.844L146.531 182.625L137.813 176.344H148.594L151.969 166.125ZM212.813 166.125L216.094 176.437H226.875L218.156 182.719L221.531 192.844L212.813 186.562L204.094 192.844L207.469 182.625L198.75 176.344H209.438L212.813 166.125ZM273.563 166.125L276.938 176.437H287.625L279 182.719L282.281 192.844L273.563 186.562L264.938 192.844L268.219 182.625L259.594 176.344H270.281L273.563 166.125ZM334.406 166.125L337.688 176.437H348.469L339.75 182.719L343.125 192.844L334.406 186.562L325.688 192.844L329.063 182.625L320.344 176.344H331.125L334.406 166.125ZM60.8438 192L64.125 202.219H74.9063L66.1875 208.5L69.4688 218.812L60.8438 212.438L52.125 218.719L55.4062 208.5L46.7813 202.219H57.4688L60.8438 192ZM121.594 192L124.969 202.219H135.656L126.937 208.5L130.313 218.812L121.594 212.438L112.875 218.719L116.25 208.5L107.531 202.219H118.313L121.594 192ZM182.438 192L185.719 202.219H196.5L187.781 208.5L191.063 218.812L182.438 212.438L173.719 218.719L177 208.5L168.375 202.219H179.063L182.438 192ZM243.188 192L246.563 202.219H257.25L248.625 208.5L251.906 218.812L243.188 212.438L234.563 218.719L237.844 208.5L229.125 202.219H240L243.188 192ZM304.031 192L307.313 202.219H318.094L309.375 208.5L312.656 218.812L304.031 212.438L295.313 218.719L298.594 208.5L289.969 202.219H300.656L304.031 192ZM30.375 217.875L33.75 228.094H44.4375L35.8125 234.375L39.0938 244.594L30.375 238.312L21.75 244.594L25.0313 234.281L16.3125 228H27.1875L30.375 217.875ZM91.2188 217.875L94.5 228.094H105.281L96.5625 234.375L99.9375 244.594L91.2188 238.312L82.5 244.594L85.875 234.281L77.1563 228H87.8438L91.2188 217.875ZM151.969 217.875L155.344 228.094H165.938L157.5 234.375L160.781 244.594L152.063 238.312L143.438 244.594L146.719 234.281L138 228H148.781L151.969 217.875ZM212.813 217.875L216.094 228.094H226.875L218.156 234.375L221.531 244.594L212.813 238.312L204.094 244.594L207.469 234.281L198.75 228H209.438L212.813 217.875ZM273.563 217.875L276.938 228.094H287.625L279 234.375L282.281 244.594L273.563 238.312L264.938 244.594L268.219 234.281L259.594 228H270.281L273.563 217.875ZM334.406 217.875L337.688 228.094H348.469L339.75 234.375L343.125 244.594L334.406 238.312L325.688 244.594L329.063 234.281L320.344 228H331.125L334.406 217.875Z" fill="white"/>
</g>
</g>
<defs>
<clipPath id="clip0_15_3847">
<rect width="640" height="480" fill="white"/>
</clipPath>
</defs>
</svg>

<svg viewBox="0 0 640 480" fill="none" xmlns="http://www.w3.org/2000/svg"><mask id="b" style="mask-type:alpha" maskUnits="userSpaceOnUse" x="0" y="2" width="640" height="478"><rect y="2" width="640" height="478" rx="40" fill="#C4C4C4"/></mask><g clip-path="url(#a)" fill-rule="evenodd" clip-rule="evenodd" mask="url(#b)"><path d="M0 0h912v36.938H0V0Zm0 73.875h912v36.937H0V73.875Zm0 73.781h912v37.032H0v-37.032Zm0 73.875h912v36.938H0v-36.938Zm0 73.875h912v36.938H0v-36.938Zm0 73.781h912v36.938H0v-36.938Zm0 73.876h912V480H0v-36.937Z" fill="#BD3D44"/><path d="M0 36.938h912v36.937H0V36.937Zm0 73.874h912v36.844H0v-36.844Zm0 73.782h912v36.937H0v-36.937Zm0 73.875h912v36.937H0v-36.937Zm0 73.875h912v36.937H0v-36.937Zm0 73.781h912v36.938H0v-36.938Z" fill="#fff"/><path d="M0 0h364.781v258.469H0V0Z" fill="#192F5D"/><path d="M30.375 11.063 33.75 21.28h10.688l-8.626 6.282 3.282 10.312-8.719-6.375-8.625 6.281 3.281-10.218-8.718-6.282h10.875l3.187-10.218Zm60.844 0L94.5 21.28h10.781l-8.719 6.282 3.282 10.312-8.625-6.375L82.5 37.78l3.281-10.218-8.625-6.282h10.688l3.375-10.218Zm60.75 0 3.375 10.218h10.594l-8.625 6.282 3.281 10.312-8.719-6.375-8.625 6.281 3.281-10.218-8.718-6.282h10.781l3.375-10.218Zm60.844 0 3.281 10.218h10.781l-8.719 6.282 3.375 10.312-8.718-6.375-8.719 6.281 3.375-10.218-8.719-6.282h10.688l3.375-10.218Zm60.75 0 3.375 10.218h10.687L279 27.563l3.281 10.312-8.718-6.375-8.625 6.281 3.281-10.218-8.625-6.282h10.687l3.282-10.218Zm60.843 0 3.282 10.218h10.781l-8.719 6.282 3.375 10.312-8.719-6.375-8.718 6.281 3.375-10.218-8.719-6.282h10.781l3.281-10.218ZM60.844 36.936l3.281 10.22h10.781l-8.719 6.28 3.188 10.22-8.438-6.282-8.718 6.281 3.093-10.218-8.437-6.282h10.688l3.28-10.218Zm60.75 0 3.375 10.22h10.687l-8.719 6.28 3.376 10.22-8.719-6.282-8.719 6.281 3.375-10.218-8.719-6.282h10.782l3.281-10.218Zm60.844 0 3.281 10.22H196.5l-8.719 6.28 3.282 10.22-8.625-6.282-8.719 6.281L177 53.438l-8.625-6.282h10.688l3.375-10.218Zm60.75 0 3.375 10.22h10.687l-8.719 6.28 3.375 10.22-8.718-6.282-8.625 6.281 3.281-10.218-8.719-6.282H240l3.188-10.218Zm60.843 0 3.282 10.22h10.781l-8.719 6.28 3.281 10.22-8.625-6.282-8.718 6.281 3.281-10.218-8.625-6.282h10.687l3.375-10.218ZM30.375 62.72l3.375 10.406h10.688l-8.626 6.281 3.282 10.219-8.719-6.375-8.625 6.375 3.281-10.313-8.718-6.28h10.875l3.187-10.313Zm60.844 0L94.5 73.03h10.781l-8.719 6.281 3.282 10.22-8.625-6.376L82.5 89.53l3.281-10.312-8.625-6.281h10.688l3.375-10.22Zm60.75 0 3.375 10.312h10.594l-8.625 6.281 3.281 10.22-8.719-6.376-8.625 6.375 3.281-10.312-8.718-6.281h10.781l3.375-10.22Zm60.844 0 3.281 10.312h10.781l-8.719 6.281 3.375 10.22-8.718-6.376-8.719 6.375 3.375-10.312-8.719-6.281h10.688l3.375-10.22Zm60.75 0 3.375 10.312h10.687L279 79.312l3.281 10.22-8.718-6.376-8.625 6.375 3.281-10.312-8.625-6.281h10.687l3.282-10.22Zm60.843 0 3.282 10.312h10.781l-8.719 6.281 3.375 10.22-8.719-6.376-8.718 6.375 3.375-10.312-8.719-6.281h10.781l3.281-10.22ZM60.844 88.594l3.281 10.219h10.781l-8.719 6.281 3.282 10.312-8.625-6.375-8.719 6.281 3.281-10.218-8.625-6.281H57.47l3.375-10.22Zm60.75 0 3.375 10.219h10.687l-8.719 6.281 3.376 10.312-8.719-6.375-8.719 6.281 3.375-10.218-8.719-6.281h10.782l3.281-10.22Zm60.844 0 3.281 10.219H196.5l-8.719 6.281 3.282 10.312-8.625-6.375-8.719 6.281L177 105.094l-8.625-6.281h10.688l3.375-10.22Zm60.75 0 3.375 10.219h10.687l-8.625 6.281 3.281 10.312-8.718-6.375-8.625 6.281 3.281-10.218-8.719-6.281H240l3.188-10.22Zm60.843 0 3.282 10.219h10.781l-8.719 6.281 3.281 10.312-8.625-6.375-8.718 6.281 3.281-10.218-8.625-6.281h10.687l3.375-10.22ZM30.375 114.469l3.375 10.218h10.688l-8.626 6.282 3.282 10.312-8.719-6.375-8.625 6.282 3.281-10.219-8.718-6.282h10.875l3.187-10.218Zm60.844 0 3.281 10.218h10.781l-8.719 6.282 3.282 10.219-8.625-6.282-8.719 6.282 3.281-10.219-8.625-6.282h10.688l3.375-10.218Zm60.75 0 3.375 10.218h10.594l-8.625 6.282 3.281 10.312-8.719-6.375-8.625 6.282 3.281-10.219-8.718-6.282h10.781l3.375-10.218Zm60.844 0 3.281 10.218h10.781l-8.719 6.282 3.375 10.312-8.718-6.375-8.719 6.282 3.375-10.219-8.719-6.282h10.688l3.375-10.218Zm60.75 0 3.375 10.218h10.687L279 130.969l3.281 10.312-8.718-6.375-8.625 6.282 3.281-10.219-8.625-6.282h10.687l3.282-10.218Zm60.843 0 3.282 10.218h10.781l-8.719 6.282 3.375 10.312-8.719-6.375-8.718 6.282 3.375-10.219-8.719-6.282h10.781l3.281-10.218ZM60.844 140.344l3.281 10.219h10.781l-8.719 6.281 3.282 10.218-8.625-6.375-8.719 6.375 3.281-10.312-8.625-6.281H57.47l3.375-10.125Zm60.75 0 3.375 10.219h10.687l-8.719 6.281 3.376 10.218-8.719-6.375-8.719 6.375 3.375-10.312-8.719-6.281h10.782l3.281-10.125Zm60.844 0 3.281 10.219H196.5l-8.719 6.281 3.282 10.218-8.625-6.375-8.719 6.375L177 156.75l-8.625-6.281h10.688l3.375-10.125Zm60.75 0 3.375 10.219h10.687l-8.625 6.281 3.281 10.218-8.718-6.375-8.625 6.375 3.281-10.312-8.719-6.281H240l3.188-10.125Zm60.843 0 3.282 10.219h10.781l-8.719 6.281 3.281 10.218-8.625-6.375-8.718 6.375 3.281-10.312-8.625-6.281h10.687l3.375-10.125ZM30.375 166.125l3.375 10.312h10.688l-8.626 6.282 3.282 10.125-8.719-6.282-8.625 6.282 3.281-10.219-8.718-6.281h10.875l3.187-10.219Zm60.844 0 3.281 10.312h10.781l-8.719 6.282 3.376 10.125-8.72-6.282-8.718 6.282 3.375-10.219-8.719-6.281h10.688l3.375-10.219Zm60.75 0 3.375 10.312h10.594l-8.625 6.282 3.281 10.125-8.719-6.282-8.625 6.282 3.281-10.219-8.718-6.281h10.781l3.375-10.219Zm60.844 0 3.281 10.312h10.781l-8.719 6.282 3.375 10.125-8.718-6.282-8.719 6.282 3.375-10.219-8.719-6.281h10.688l3.375-10.219Zm60.75 0 3.375 10.312h10.687L279 182.719l3.281 10.125-8.718-6.282-8.625 6.282 3.281-10.219-8.625-6.281h10.687l3.282-10.219Zm60.843 0 3.282 10.312h10.781l-8.719 6.282 3.375 10.125-8.719-6.282-8.718 6.282 3.375-10.219-8.719-6.281h10.781l3.281-10.219ZM60.844 192l3.281 10.219h10.781l-8.719 6.281 3.282 10.312-8.625-6.374-8.719 6.281 3.281-10.219-8.625-6.281H57.47L60.844 192Zm60.75 0 3.375 10.219h10.687l-8.719 6.281 3.376 10.312-8.719-6.374-8.719 6.281 3.375-10.219-8.719-6.281h10.782L121.594 192Zm60.844 0 3.281 10.219H196.5l-8.719 6.281 3.282 10.312-8.625-6.374-8.719 6.281L177 208.5l-8.625-6.281h10.688L182.438 192Zm60.75 0 3.375 10.219h10.687l-8.625 6.281 3.281 10.312-8.718-6.374-8.625 6.281 3.281-10.219-8.719-6.281H240L243.188 192Zm60.843 0 3.282 10.219h10.781l-8.719 6.281 3.281 10.312-8.625-6.374-8.718 6.281 3.281-10.219-8.625-6.281h10.687L304.031 192ZM30.375 217.875l3.375 10.219h10.688l-8.626 6.281 3.282 10.219-8.719-6.282-8.625 6.282 3.281-10.313L16.313 228h10.875l3.187-10.125Zm60.844 0 3.281 10.219h10.781l-8.719 6.281 3.376 10.219-8.72-6.282-8.718 6.282 3.375-10.313L77.156 228h10.688l3.375-10.125Zm60.75 0 3.375 10.219h10.594l-8.438 6.281 3.281 10.219-8.718-6.282-8.625 6.282 3.281-10.313L138 228h10.781l3.188-10.125Zm60.844 0 3.281 10.219h10.781l-8.719 6.281 3.375 10.219-8.718-6.282-8.719 6.282 3.375-10.313L198.75 228h10.688l3.375-10.125Zm60.75 0 3.375 10.219h10.687L279 234.375l3.281 10.219-8.718-6.282-8.625 6.282 3.281-10.313-8.625-6.281h10.687l3.282-10.125Zm60.843 0 3.282 10.219h10.781l-8.719 6.281 3.375 10.219-8.719-6.282-8.718 6.282 3.375-10.313-8.719-6.281h10.781l3.281-10.125Z" fill="#fff"/></g><defs><clipPath id="a"><path fill="#fff" d="M0 0h640v480H0z"/></clipPath></defs></svg>
